X:17
T:Jimmy Keane's
M:C|
L:1/8
R:reel
D:Bohola
K:BMin
Bbfd BcdB|cAeA fAec|Bbfd BcdB|ABcA ~d2 cd |
Bbfd BcdB|cAeA fAeA|fedf edce|fgfe dBBA|
!FBBA ~B2dB|A~F3 dFAF|EBBA Bcde|1dBcA Bcdc:|2dBcA Bcde||
!dBBA ~B2dB|A~F3 dFAF|EBBA ~B3A|B/2c/2d BA Bcde|
!~f3b bafb|a~f3 fedf|eBBA ~B3f|eBBA Bcde|
!~f3b bafb|a~f3 fedf|e2ba bafa|e/2e/2e eb bafe|
!~f3b bafb|a~f3 fedf|eBBA ~B3f|eBBA B/2c/2d BA|
!~F3A Bcde|~f3g fedf|edBf edBf|edef edBA||
